usr/share/icons/biglinux-icons-material-dark/22/actions/format-node-corner.svg

<svg xmlns="http://www.w3.org/2000/svg" viewBox="0 0 22 22">
  <defs id="defs3051">
    <style type="text/css" id="current-color-scheme">
      .ColorScheme-Text {
        color:#dedede;
      }
      .ColorScheme-Highlight {
        color:#3daee9;
      }
      </style>
  </defs>
 <path 
     style="fill:currentColor;fill-opacity:1;stroke:none" 
     d="M 16 3 L 16 4 L 5.9121094 4 C 5.969602 4.1604624 5.9993244 4.3295502 6 4.5 C 5.9993244 4.6704498 5.969602 4.8395376 5.9121094 5 L 16 5 L 16 6 L 19 6 L 19 3 L 16 3 z M 17 4 L 18 4 L 18 5 L 17 5 L 17 4 z M 4 5.9121094 L 4 16 L 3 16 L 3 19 L 6 19 L 6 16 L 5 16 L 5 5.9121094 C 4.8395376 5.969602 4.6704498 5.9993244 4.5 6 C 4.3295502 5.9993244 4.1604624 5.969602 4 5.9121094 z M 4 17 L 5 17 L 5 18 L 4 18 L 4 17 z "
     class="ColorScheme-Text"
     />
 <path 
     style="fill:currentColor;fill-opacity:1;stroke:none" 
     d="M 4.5 3 A 1.5 1.5 0 0 0 3 4.5 A 1.5 1.5 0 0 0 4.5 6 A 1.5 1.5 0 0 0 6 4.5 A 1.5 1.5 0 0 0 4.5 3 z M 4.5 4 A 0.5 0.5 0 0 1 5 4.5 A 0.5 0.5 0 0 1 4.5 5 A 0.5 0.5 0 0 1 4 4.5 A 0.5 0.5 0 0 1 4.5 4 z "
     class="ColorScheme-Highlight"
     />
</svg>

<svg xmlns="http://www.w3.org/2000/svg" viewBox="0 0 22 22">
<defs id="defs3051">
<style id="current-color-scheme" type="text/css">
.ColorScheme-Text{color:#dedede}.ColorScheme-Highlight{color:#3daee9}
</style>
</defs>
<path d="M16 3v1H5.912a1.47 1.47 0 0 1 0 1H16v1h3V3zm1 1h1v1h-1zM4 5.912V16H3v3h3v-3H5V5.912A1.5 1.5 0 0 1 4.5 6a1.5 1.5 0 0 1-.5-.088M4 17h1v1H4z" class="ColorScheme-Text" style="fill:currentColor;fill-opacity:1;stroke:none"/>
<path d="M4.5 3A1.5 1.5 0 0 0 3 4.5 1.5 1.5 0 0 0 4.5 6 1.5 1.5 0 0 0 6 4.5 1.5 1.5 0 0 0 4.5 3m0 1a.5.5 0 0 1 .5.5.5.5 0 0 1-.5.5.5.5 0 0 1-.5-.5.5.5 0 0 1 .5-.5" class="ColorScheme-Highlight" style="fill:currentColor;fill-opacity:1;stroke:none"/>
</svg>
